svg/receipt_send.svg

<svg xmlns="http://www.w3.org/2000/svg" viewBox="0 0 24 24"><path d="M4.5 20.5 3 22V2l1.5 1.5L6 2l1.5 1.5L9 2l1.5 1.5L12 2l1.5 1.5L15 2l1.5 1.5L18 2l1.5 1.5L21 2v12.26l-9-4.5V22l-1.5-1.5L9 22l-1.5-1.5L6 22zM14 19l4-1-4-1v-4l10 5-10 5z"/></svg>

<svg xmlns="http://www.w3.org/2000/svg" id="mdi-receipt-send" viewBox="0 0 24 24"><path d="M4.5 20.5L3 22V2L4.5 3.5L6 2L7.5 3.5L9 2L10.5 3.5L12 2L13.5 3.5L15 2L16.5 3.5L18 2L19.5 3.5L21 2V14.26L12 9.76V22L10.5 20.5L9 22L7.5 20.5L6 22L4.5 20.5M14 19L18 18L14 17V13L24 18L14 23V19Z" /></svg>
